**kern
*M4/4
*met(c)
=1
4c
4d
4e
4f
=2
*M2/2
*met(c|)
2g
2a
=3
*M3/1
*met(O)
=1
1c
1d
1e
=2
*M2/1
*met(C)
1f
1e
=3
*M2/1
*met(C|)
1B
1c
=4
*M6/2
*met(C.)
2d
1e
1.f
=5
*M6/2
*met(O.)
1d
2e
2d
2c
2B
1.c
=6
*M2/1
*met(Cr)
1d
1e
=7
*M2/1
*met(O|)
1f
1e
1d
=
*-
